style/icons/fast-forward.svg

<svg width="36" height="25" viewBox="0 0 36 25" fill="none" xmlns="http://www.w3.org/2000/svg">
  <path d="M16.8904 10.1358L3.40699 0.874222C2.77545 0.440406 1.95766 0.393822 1.28247 0.749026C0.604367 1.10714 0.182373 1.80882 0.182373 2.57164V22.1283C0.182373 22.894 0.604367 23.5957 1.28247 23.9509C1.95766 24.309 2.77545 24.2595 3.40699 23.8286L16.8904 14.5671C17.6209 14.0634 18.0545 13.2365 18.0545 12.3514C18.0545 11.4663 17.6209 10.6365 16.8904 10.1358Z" fill="#482F87"/>
  <path d="M34.3495 10.1358L20.8661 0.874222C20.2346 0.440406 19.4168 0.393822 18.7387 0.749026C18.0635 1.10714 17.6415 1.80882 17.6415 2.57164V22.1283C17.6415 22.894 18.0635 23.5957 18.7387 23.9509C19.4168 24.309 20.2346 24.2595 20.8661 23.8286L34.3495 14.5671C35.08 14.0634 35.5136 13.2365 35.5136 12.3514C35.5136 11.4663 35.08 10.6365 34.3495 10.1358Z" fill="#482F87"/>
</svg>

<svg xmlns="http://www.w3.org/2000/svg" width="36" height="25" fill="none"><path fill="#482F87" d="M16.89 10.136 3.407.874A2.059 2.059 0 0 0 .182 2.572v19.556c0 .766.422 1.468 1.1 1.823a2.06 2.06 0 0 0 2.125-.122l13.483-9.262a2.688 2.688 0 0 0 0-4.431"/><path fill="#482F87" d="M34.35 10.136 20.865.874A2.06 2.06 0 0 0 18.74.75a2.06 2.06 0 0 0-1.098 1.823v19.556c0 .766.423 1.468 1.098 1.823a2.06 2.06 0 0 0 2.127-.122l13.484-9.262a2.688 2.688 0 0 0 0-4.431Z"/></svg>
